assets/icons/eye-closed.svg

<svg width="25" height="25" viewBox="0 0 25 25" fill="none" xmlns="http://www.w3.org/2000/svg">
<g id="eye-closed">
<path id="iconDefault" fill-rule="evenodd" clip-rule="evenodd" d="M1.33769 6.7603C1.63119 6.57861 2.0164 6.66925 2.19808 6.96274C6.93482 14.6144 18.0652 14.6144 22.8019 6.96274C22.9836 6.66925 23.3688 6.57861 23.6623 6.7603C23.9558 6.94198 24.0464 7.32719 23.8647 7.62068C22.9606 9.08129 21.8452 10.2892 20.5917 11.2443L22.2257 14.5122C22.3801 14.8209 22.2549 15.1964 21.9462 15.3507C21.6374 15.5051 21.262 15.38 21.1076 15.0712L19.552 11.96C18.3634 12.6963 17.079 13.2284 15.7521 13.5564L16.4397 16.3068C16.5234 16.6417 16.3198 16.981 15.9849 17.0647C15.65 17.1484 15.3107 16.9448 15.227 16.61L14.5245 13.8C13.1835 14.002 11.8165 14.002 10.4755 13.8L9.773 16.61C9.68929 16.9448 9.34995 17.1484 9.01508 17.0647C8.68021 16.981 8.47661 16.6417 8.56033 16.3068L9.24792 13.5564C7.92096 13.2284 6.63662 12.6963 5.44797 11.96L3.89235 15.0712C3.73798 15.38 3.36256 15.5051 3.05382 15.3507C2.74509 15.1964 2.61995 14.8209 2.77432 14.5122L4.40827 11.2443C3.1548 10.2892 2.03944 9.08129 1.13525 7.62068C0.953565 7.32719 1.0442 6.94198 1.33769 6.7603Z" fill="#18303F"/>
</g>
</svg>

<svg width="25" height="25" viewBox="0 0 25 25" fill="none"><g id="eye-closed"><path id="iconDefault" fill-rule="evenodd" clip-rule="evenodd" d="M1.338 6.76a.625.625 0 0 1 .86.203c4.737 7.651 15.867 7.651 20.604 0a.625.625 0 0 1 1.063.658 13.394 13.394 0 0 1-3.273 3.623l1.634 3.268a.625.625 0 1 1-1.118.56l-1.556-3.112a13.25 13.25 0 0 1-3.8 1.596l.688 2.75a.625.625 0 0 1-1.213.304l-.703-2.81a13.602 13.602 0 0 1-4.048 0l-.703 2.81a.625.625 0 0 1-1.213-.303l.688-2.75a13.25 13.25 0 0 1-3.8-1.597l-1.556 3.111a.625.625 0 1 1-1.118-.559l1.634-3.268a13.396 13.396 0 0 1-3.273-3.623.625.625 0 0 1 .203-.86Z" fill="#18303F"/></g></svg>
